Newaita-dark/actions/32/folder-open2.svg

<?xml version="1.0" encoding="UTF-8"?>
<svg xmlns="http://www.w3.org/2000/svg" xmlns:xlink="http://www.w3.org/1999/xlink" width="32pt" height="32pt" viewBox="0 0 32 32" version="1.1">
<g id="surface1">
<path style=" stroke:none;fill-rule:nonzero;fill:rgb(74.117649%,74.117649%,74.117649%);fill-opacity:1;" d="M 10.585938 2.894531 C 9.117188 2.894531 7.9375 4.078125 7.9375 5.542969 L 7.9375 8.1875 L 3.96875 8.1875 C 2.503906 8.1875 1.324219 9.367188 1.324219 10.835938 L 1.324219 26.710938 C 1.324219 28.175781 2.503906 29.355469 3.96875 29.355469 L 27.785156 29.355469 C 29.25 29.355469 30.429688 28.175781 30.429688 26.710938 L 30.429688 14.140625 L 17.199219 14.140625 C 16.464844 14.140625 15.875 13.550781 15.875 12.820312 L 15.875 8.1875 L 9.921875 8.1875 L 9.921875 6.203125 C 9.921875 5.472656 10.511719 4.878906 11.246094 4.878906 L 18.347656 4.878906 C 18.457031 4.6875 18.523438 4.460938 18.523438 4.21875 C 18.523438 3.484375 17.933594 2.894531 17.199219 2.894531 Z M 4.628906 10.171875 L 13.890625 10.171875 L 13.890625 13.480469 C 13.890625 14.945312 15.070312 16.125 16.539062 16.125 L 28.445312 16.125 L 28.445312 26.050781 C 28.445312 26.78125 27.855469 27.371094 27.121094 27.371094 L 4.628906 27.371094 C 3.898438 27.371094 3.308594 26.78125 3.308594 26.050781 L 3.308594 11.496094 C 3.308594 10.761719 3.898438 10.171875 4.628906 10.171875 Z M 4.628906 10.171875 "/>
<path style="fill:none;stroke-width:42.333;stroke-linecap:butt;stroke-linejoin:round;stroke:rgb(74.117649%,74.117649%,74.117649%);stroke-opacity:1;stroke-miterlimit:4;" d="M 391.587605 -147.506445 L 317.469683 -41.641555 L 465.643033 -41.641555 Z M 391.587605 -147.506445 " transform="matrix(0.062506,0,0,0.062506,0,13.438783)"/>
</g>
</svg>

<svg xmlns="http://www.w3.org/2000/svg" width="32pt" height="32pt" viewBox="0 0 32 32"><path d="M10.586 2.895a2.643 2.643 0 0 0-2.649 2.648v2.644H3.97a2.64 2.64 0 0 0-2.645 2.649V26.71a2.639 2.639 0 0 0 2.645 2.644h23.816a2.639 2.639 0 0 0 2.645-2.644V14.14H17.2a1.32 1.32 0 0 1-1.325-1.32V8.187H9.922V6.202c0-.73.59-1.324 1.324-1.324h7.102c.109-.191.175-.418.175-.66A1.32 1.32 0 0 0 17.2 2.895zm-5.957 7.277h9.262v3.308a2.64 2.64 0 0 0 2.648 2.645h11.906v9.926c0 .73-.59 1.32-1.324 1.32H4.63c-.73 0-1.32-.59-1.32-1.32V11.496c0-.734.59-1.324 1.32-1.324zm0 0" fill="#bdbdbd"/><path d="M24.477 4.219l-4.633 6.617h9.261zm0 0" fill="none" stroke-width="2.6462358299999997" stroke-linejoin="round" stroke="#bdbdbd"/></svg>
